X: 6350
T: Casey's Favourite
R: strathspey
M: 4/4
K: Dmajor
d/c/B|AFdB AF F/F/F|AFdB A2 d/c/B|AFdB ABde|feef e2 dB|
A/B/A dB AF F/F/F|AFdB ABde|faaf gfef|dBAF D4||
defg abaf|gage abaf|defg abaf|bfaf e/f/e dc|
d2 e/f/g a2 af|bagb a2 af|gfeg f2 fd|edef e2||

